X:2
T:Forked Deer
M:2/4
L:1/8
R:Reel
B:George P. Knauff - Virginia Reels
N:Published in Baltimore by Geo. Willig n.d. (1839?)
Z:AK/Fiddler's Companion
Z: Contributed 2016-03-31 15:39:27 by jim Gaskins fiddeji@comcast.net
K:D
Ac/A/ Ac/A/|Ac E/E/C|Ac/A/ Ac/A/|EC D/D/D|A/A/c/A/ A/A/c/A/|
A/c/A/c/ EC/C/|DE FG|F/E/D/C/ Dz::d/e/f/g/ a/b/a/f/|g/a/g/e/ f/g/f/e/|
d/e/f/g/ a/f/b/a/|g/f/e/d/ c/d/e|d/e/f/g/ a/b/a/f/|g/a/g/e/ fz|dF G/B/A/G/|F/E/D/C/ Dz:||
